app/images/cow.svg

<svg width="214" height="162" viewBox="0 0 214 162" fill="none" xmlns="http://www.w3.org/2000/svg">
<path d="M160.408 83.7227C163.112 91.3345 159.225 99.792 151.619 102.498C144.014 105.205 135.563 101.314 132.859 93.7026C130.154 86.0908 134.042 77.6332 141.647 74.9268C149.253 72.0513 157.535 76.1109 160.408 83.7227Z" fill="#F2F2F2"/>
<path d="M76.9988 96.767L63.4688 101.602L84.7835 161.342L98.3136 156.507L76.9988 96.767Z" fill="#F2F2F2"/>
<path d="M168.96 63.9377L155.43 68.773L176.744 128.513L190.275 123.677L168.96 63.9377Z" fill="#F2F2F2"/>
<path d="M198.439 73.9759L84.6921 114.572C76.5794 117.448 67.7907 113.219 64.9174 105.1L42.2695 41.6681L156.016 1.07192C164.129 -1.80365 173.086 2.42511 175.96 10.5443L198.439 73.9759Z" fill="white"/>
<path d="M100.014 88.627L86.4844 93.4623L107.799 153.202L121.329 148.367L100.014 88.627Z" fill="white"/>
<path d="M191.917 55.6389L178.387 60.4742L199.701 120.214L213.232 115.379L191.917 55.6389Z" fill="white"/>
<path d="M64.2397 29.6583L63.9016 28.8126C62.2115 24.2455 57.3101 21.8774 52.7467 23.5689L22.1551 34.5637C17.5918 36.2552 15.2256 41.1606 16.9157 45.7277L17.2537 46.5734L0.859375 52.4937C0.859375 52.4937 9.14106 65.18 18.9439 51.1405L30.4368 83.2791C34.1552 93.7665 45.8171 99.3484 56.296 95.458L65.2537 92.2441C75.7326 88.5228 81.3101 76.8514 77.4228 66.3641L65.9298 34.2254C82.4932 38.7925 80.8031 23.9072 80.8031 23.9072L64.2397 29.6583Z" fill="#979797"/>
<path d="M155.844 1.24104L117.309 14.9423C120.689 17.987 124.745 20.5242 128.802 22.8924C133.534 25.7679 138.435 28.4743 143.844 29.4892C152.464 31.0116 161.083 27.4594 168.52 22.8924C171.9 20.8625 175.111 18.6636 177.478 15.6189L175.788 10.7135C172.914 2.59426 163.957 -1.63452 155.844 1.24104Z" fill="#979797"/>
<path d="M119.505 44.3745C122.717 46.9117 125.928 49.449 128.294 52.832C130.66 56.0458 132.35 60.1055 132.519 64.1651C132.689 71.2694 127.956 78.0354 121.534 81.0801C115.111 83.9557 107.336 83.4482 100.914 80.2344C94.4913 77.0205 89.5899 71.4386 86.2096 65.18C83.8434 60.7821 82.3223 56.0458 82.1533 51.1405C81.9843 46.2351 83.5054 41.1606 86.7167 37.4393C95.1674 27.7977 111.9 38.6233 119.505 44.3745Z" fill="#979797"/>
<path d="M17.0837 45.7277L17.4217 46.5735L1.02734 52.4938C1.02734 52.4938 9.30904 65.1801 19.1119 51.1406L26.8865 72.7918C32.295 70.2546 36.6893 66.0258 39.0555 60.613C40.2386 57.7374 40.9147 54.5236 41.0837 51.3097C41.2527 46.4043 40.4076 41.499 38.5485 36.9319C37.5344 34.5638 36.3513 32.3648 34.8302 30.335L22.6612 34.7329C17.7598 36.2553 15.3935 41.1607 17.0837 45.7277Z" fill="white"/>
</svg>

<svg width="214" height="162" fill="none" xmlns="http://www.w3.org/2000/svg"><path d="M160.408 83.723c2.704 7.612-1.183 16.069-8.789 18.775-7.605 2.707-16.056-1.184-18.76-8.795-2.705-7.612 1.183-16.07 8.788-18.776 7.606-2.876 15.888 1.184 18.761 8.796zM76.999 96.767l-13.53 4.835 21.315 59.74 13.53-4.835-21.315-59.74zM168.96 63.938l-13.53 4.835 21.314 59.74 13.531-4.836-21.315-59.74z" fill="#F2F2F2"/><path d="M198.439 73.976L84.692 114.572c-8.113 2.876-16.901-1.353-19.775-9.472L42.27 41.668 156.017 1.072c8.113-2.876 17.07 1.353 19.944 9.472l22.479 63.432z" fill="#fff"/><path d="M100.014 88.627l-13.53 4.835 21.315 59.74 13.53-4.835-21.315-59.74zM191.917 55.639l-13.53 4.835 21.314 59.74 13.531-4.835-21.315-59.74z" fill="#fff"/><path d="M64.24 29.658l-.338-.845c-1.69-4.567-6.592-6.936-11.155-5.244L22.155 34.564c-4.563 1.691-6.93 6.597-5.24 11.164l.339.845-16.395 5.92s8.282 12.687 18.085-1.352l11.493 32.138c3.718 10.487 15.38 16.07 25.859 12.179l8.958-3.214c10.479-3.721 16.056-15.393 12.169-25.88L65.93 34.225c16.563 4.567 14.873-10.318 14.873-10.318L64.24 29.658zM155.844 1.241l-38.535 13.701c3.38 3.045 7.436 5.582 11.493 7.95 4.732 2.876 9.633 5.582 15.042 6.597 8.62 1.523 17.239-2.03 24.676-6.597 3.38-2.03 6.591-4.228 8.958-7.273l-1.69-4.905c-2.874-8.12-11.831-12.349-19.944-9.473zM119.505 44.374c3.212 2.538 6.423 5.075 8.789 8.458 2.366 3.214 4.056 7.273 4.225 11.333.17 7.104-4.563 13.87-10.985 16.915-6.423 2.876-14.198 2.368-20.62-.846C94.491 77.021 89.59 71.44 86.21 65.18c-2.367-4.398-3.888-9.134-4.057-14.04-.169-4.905 1.352-9.98 4.564-13.7 8.45-9.642 25.183 1.183 32.788 6.934z" fill="#979797"/><path d="M17.084 45.728l.338.846-16.395 5.92S9.31 65.18 19.112 51.14l7.775 21.65c5.408-2.536 9.802-6.765 12.169-12.178 1.183-2.876 1.859-6.09 2.028-9.303a34.942 34.942 0 0 0-2.536-14.378c-1.014-2.368-2.197-4.567-3.718-6.597l-12.169 4.398c-4.901 1.522-7.268 6.428-5.577 10.995z" fill="#fff"/></svg>
